icon-themes/breeze_svg/cmd/sc_rejectalltrackedchanges.svg

<svg viewBox="0 0 16 16" xmlns="http://www.w3.org/2000/svg"><path d="m.65625 4-.65625.65625 3.34375 3.34375-3.34375 3.3125.65625.6875 3.375-3.34375 3.3125 3.3125.65625-.625-3.34375-3.34375 3.34375-3.3125-.65625-.6875-3.34375 3.34375zm8 0-.65625.65625 3.34375 3.34375-3.34375 3.3125.65625.6875 3.375-3.34375 3.3125 3.3125.65625-.625-3.34375-3.34375 3.34375-3.3125-.65625-.6875-3.34375 3.34375z" fill="#da4453"/></svg>

<svg viewBox="0 0 16 16" xmlns="http://www.w3.org/2000/svg">
  <path
     style="fill:#da4453"
     d="M 0.65625 4 L 0 4.65625 L 3.34375 8 L 0 11.3125 L 0.65625 12 L 4.03125 8.65625 L 7.34375 11.96875 L 8 11.34375 L 4.65625 8 L 8 4.6875 L 7.34375 4 L 4 7.34375 L 0.65625 4 z M 8.65625 4 L 8 4.65625 L 11.34375 8 L 8 11.3125 L 8.65625 12 L 12.03125 8.65625 L 15.34375 11.96875 L 16 11.34375 L 12.65625 8 L 16 4.6875 L 15.34375 4 L 12 7.34375 L 8.65625 4 z "
     />
</svg>
